!!!OTL: Frau von Weissenburg Was wollen wir aber singen,
!!!ARE: Europa, Mitteleuropa, Deutschland
!!!YOR: 1, S. 304
!!    1557 gedruckt
!!!SCT: Q0030A
!!!YEM: Copyright 1995, estate of Helmut Schaffrath.
**kern
*ICvox
*Ivox
*M6/4
*k[]
*C:
{4c
=1
2c
4e
2e
4c
=2
2e
8f
8g
2f}
{8e
8d
=3
4c
4c
4c
2g
4f
=4
2.e
2r}
{8f
8g
=5
2f
4e
2c
4e
=6
2d
4d
2G}
{4e
=7
2f
8e
8d
2c
8A
8B
=8
2.c
2r}
==
!!!AGN: Ballade, Ehebruch, Mord, Moral
!! Grundton in der zweigestrichenen Oktave; Taktart ergaenzt
!!!ONB: ESAC (Essen Associative Code) Database: BALLADE
!!!AMT: compound duple
!!!AIN: vox
!!!EED: Helmut Schaffrath
!!!EEV: 1.0
*-
